raw/hero/server-error.svg

<svg width="220" height="160" viewBox="0 0 220 160" fill="none" xmlns="http://www.w3.org/2000/svg">
<rect x="66.834" y="68.9167" width="84.3333" height="5.5" fill="#757B94"/>
<rect x="55" y="38" width="108" height="31" rx="12" fill="url(#paint0_linear_2539_132194)"/>
<mask id="mask0_2539_132194" style="mask-type:alpha" maskUnits="userSpaceOnUse" x="55" y="38" width="108" height="31">
<rect x="55" y="38" width="108" height="31" rx="12" fill="url(#paint1_linear_2539_132194)"/>
</mask>
<g mask="url(#mask0_2539_132194)">
<path d="M69.2521 65.0504H32.445C23.5014 65.4418 15.9203 58.74 15.5171 50.075C15.2002 43.3333 19.3219 37.3914 25.381 34.902C28.3561 33.6796 30.8743 31.0807 31.8072 28.0025C34.1828 20.1637 41.3972 14.2798 50.2149 13.7091C59.4832 13.111 67.8013 18.5577 70.9098 26.6702C71.8643 29.1612 73.8889 31.1978 76.3496 32.228C83.1304 35.0668 87.5505 41.8378 86.9446 49.2803C86.2177 58.2121 78.5035 65.0899 69.2541 65.0504H69.2521Z" fill="url(#paint2_linear_2539_132194)"/>
</g>
<path fill-rule="evenodd" clip-rule="evenodd" d="M62.2 46.1C62.2 46.7075 61.7075 47.2 61.1 47.2C60.4925 47.2 60 46.7075 60 46.1C60 45.4925 60.4925 45 61.1 45C61.7075 45 62.2 45.4925 62.2 46.1ZM66.6 46.1C66.6 46.7075 66.1075 47.2 65.5 47.2C64.8925 47.2 64.4 46.7075 64.4 46.1C64.4 45.4925 64.8925 45 65.5 45C66.1075 45 66.6 45.4925 66.6 46.1ZM69.9 47.2C70.5075 47.2 71 46.7075 71 46.1C71 45.4925 70.5075 45 69.9 45C69.2925 45 68.8 45.4925 68.8 46.1C68.8 46.7075 69.2925 47.2 69.9 47.2Z" fill="#757B94"/>
<circle cx="146.5" cy="53.5" r="4.5" fill="#0066FF"/>
<rect opacity="0.6" x="114.5" y="52.5" width="22" height="2" fill="#AFB4C8"/>
<path d="M117 69V69C117 65.6863 114.314 63 111 63H71C67.6863 63 65 65.6863 65 69V69" stroke="white"/>
<rect x="67" y="103" width="84" height="6" fill="#757B94"/>
<rect x="55" y="74" width="108" height="31" rx="12" fill="url(#paint3_linear_2539_132194)"/>
<path fill-rule="evenodd" clip-rule="evenodd" d="M63.2 81.1C63.2 81.7075 62.7075 82.2 62.1 82.2C61.4925 82.2 61 81.7075 61 81.1C61 80.4925 61.4925 80 62.1 80C62.7075 80 63.2 80.4925 63.2 81.1ZM67.6 81.1C67.6 81.7075 67.1075 82.2 66.5 82.2C65.8925 82.2 65.4 81.7075 65.4 81.1C65.4 80.4925 65.8925 80 66.5 80C67.1075 80 67.6 80.4925 67.6 81.1ZM70.9 82.2C71.5075 82.2 72 81.7075 72 81.1C72 80.4925 71.5075 80 70.9 80C70.2925 80 69.8 80.4925 69.8 81.1C69.8 81.7075 70.2925 82.2 70.9 82.2Z" fill="#757B94"/>
<circle cx="146.5" cy="89.5" r="4.5" fill="#0066FF"/>
<rect opacity="0.6" x="114" y="88.5" width="22" height="2" fill="#AFB4C8"/>
<path d="M117 105V105C117 101.686 114.314 99 111 99H71C67.6863 99 65 101.686 65 105V105" stroke="white"/>
<rect x="67" y="138" width="84" height="6" fill="#757B94"/>
<rect x="55" y="109" width="108" height="31" rx="12" fill="url(#paint4_linear_2539_132194)"/>
<path fill-rule="evenodd" clip-rule="evenodd" d="M63.2 116.1C63.2 116.708 62.7075 117.2 62.1 117.2C61.4925 117.2 61 116.708 61 116.1C61 115.492 61.4925 115 62.1 115C62.7075 115 63.2 115.492 63.2 116.1ZM67.6 116.1C67.6 116.708 67.1075 117.2 66.5 117.2C65.8925 117.2 65.4 116.708 65.4 116.1C65.4 115.492 65.8925 115 66.5 115C67.1075 115 67.6 115.492 67.6 116.1ZM70.9 117.2C71.5075 117.2 72 116.708 72 116.1C72 115.492 71.5075 115 70.9 115C70.2925 115 69.8 115.492 69.8 116.1C69.8 116.708 70.2925 117.2 70.9 117.2Z" fill="#757B94"/>
<circle cx="146.5" cy="124.5" r="4.5" fill="#0066FF"/>
<rect opacity="0.6" x="114" y="123.5" width="22" height="2" fill="#AFB4C8"/>
<path d="M117 140V140C117 136.686 114.314 134 111 134H71C67.6863 134 65 136.686 65 140V140" stroke="white"/>
<path d="M68.6387 59.6394H43.5501C37.4539 59.9063 32.2865 55.3381 32.0116 49.4319C31.7341 43.527 36.4521 38.5223 42.5483 38.2541C42.532 31.0785 48.2708 25.1224 55.6625 24.6441C63.0542 24.167 69.5592 29.3308 70.5272 36.4457C76.7574 37.3755 81.1938 42.8034 80.6983 48.8902C80.2028 54.9783 74.9446 59.6664 68.64 59.6394H68.6387Z" fill="#0066FF"/>
<path fill-rule="evenodd" clip-rule="evenodd" d="M55.1 33.5C54.4685 33.5 53.9667 34.0305 54.0017 34.661L54.4829 43.3219C54.4858 43.3739 54.4924 43.4256 54.5026 43.4767L55.4104 48.0157C55.5132 48.5299 55.9647 48.9 56.489 48.9H56.8854C57.4098 48.9 57.8612 48.5299 57.9641 48.0157L58.8719 43.4767C58.8821 43.4256 58.8887 43.3739 58.8916 43.3219L59.3727 34.661C59.4078 34.0305 58.9059 33.5 58.2744 33.5H55.1ZM55.5872 50C54.9797 50 54.4872 50.4925 54.4872 51.1V53.3C54.4872 53.9075 54.9797 54.4 55.5872 54.4H57.7872C58.3947 54.4 58.8872 53.9075 58.8872 53.3V51.1C58.8872 50.4925 58.3947 50 57.7872 50H55.5872Z" fill="url(#paint5_linear_2539_132194)"/>
<path fill-rule="evenodd" clip-rule="evenodd" d="M178.373 115.793C179.903 115.367 181.511 115.656 183.209 116.636C184.677 117.484 185.646 118.561 186.089 119.913C186.545 121.241 186.371 122.602 185.58 123.972C184.934 125.091 184.095 125.855 183.1 126.255C182.748 126.387 181.763 126.609 180.145 126.923C179.498 127.037 178.939 127.262 178.496 127.554C177.98 127.865 177.575 128.301 177.259 128.849L177.034 129.237L174.58 127.82L174.804 127.432C175.292 126.587 175.851 125.936 176.515 125.528C177.182 125.061 178.595 124.628 180.742 124.193L181.382 123.984C182.099 123.698 182.644 123.282 182.987 122.688C183.449 121.889 183.575 121.14 183.403 120.432C183.208 119.71 182.674 119.098 181.848 118.621C180.816 118.025 179.874 117.908 179.033 118.305C178.304 118.615 177.649 119.272 177.069 120.276L174.66 118.886C175.623 117.219 176.856 116.196 178.373 115.793ZM174.423 129.462C173.897 129.158 173.224 129.339 172.92 129.865L172.32 130.904C172.017 131.43 172.197 132.103 172.723 132.406L173.762 133.006C174.288 133.31 174.961 133.13 175.265 132.604L175.865 131.565C176.169 131.039 175.988 130.366 175.462 130.062L174.423 129.462Z" fill="#D3D9E6"/>
<path fill-rule="evenodd" clip-rule="evenodd" d="M172.31 89.0618C173.678 88.2547 175.306 88.1175 177.199 88.6249C178.837 89.0637 180.051 89.8532 180.829 91.0442C181.614 92.2098 181.798 93.5693 181.388 95.0974C181.054 96.3452 180.442 97.3003 179.584 97.9438C179.278 98.1622 178.384 98.6324 176.902 99.3543C176.307 99.6315 175.826 99.9939 175.472 100.391C175.055 100.825 174.776 101.351 174.613 101.962L174.497 102.395L171.759 101.661L171.875 101.228C172.127 100.286 172.499 99.5121 173.035 98.9459C173.559 98.322 174.811 97.5383 176.772 96.5627L177.337 96.1954C177.955 95.7331 178.374 95.1904 178.552 94.5283C178.79 93.637 178.719 92.8808 178.369 92.2412C177.994 91.5947 177.32 91.1412 176.399 90.8944C175.247 90.5859 174.308 90.7162 173.598 91.3176C172.974 91.8054 172.511 92.6096 172.211 93.7301L169.524 93.0102C170.022 91.1511 170.949 89.8435 172.31 89.0618ZM172.032 103.288C171.446 103.13 170.843 103.479 170.685 104.065L170.375 105.225C170.217 105.811 170.566 106.414 171.153 106.572L172.312 106.882C172.898 107.04 173.502 106.691 173.659 106.104L173.969 104.945C174.127 104.359 173.778 103.755 173.192 103.598L172.032 103.288Z" fill="#D3D9E6"/>
<defs>
<linearGradient id="paint0_linear_2539_132194" x1="55" y1="38" x2="163" y2="38" gradientUnits="userSpaceOnUse">
<stop stop-color="#CFD4E6"/>
<stop offset="1" stop-color="#DBE0F0"/>
</linearGradient>
<linearGradient id="paint1_linear_2539_132194" x1="55" y1="38" x2="163" y2="38" gradientUnits="userSpaceOnUse">
<stop stop-color="#B1B5C4"/>
<stop offset="1" stop-color="#E4E9F3"/>
</linearGradient>
<linearGradient id="paint2_linear_2539_132194" x1="55" y1="63.5" x2="87" y2="47.5" gradientUnits="userSpaceOnUse">
<stop stop-color="#BCC2D6"/>
<stop offset="1" stop-color="#CCD2E4"/>
</linearGradient>
<linearGradient id="paint3_linear_2539_132194" x1="55" y1="74" x2="163" y2="74" gradientUnits="userSpaceOnUse">
<stop stop-color="#CFD4E6"/>
<stop offset="1" stop-color="#DBE0F0"/>
</linearGradient>
<linearGradient id="paint4_linear_2539_132194" x1="55" y1="109" x2="163" y2="109" gradientUnits="userSpaceOnUse">
<stop stop-color="#CFD4E6"/>
<stop offset="1" stop-color="#DBE0F0"/>
</linearGradient>
<linearGradient id="paint5_linear_2539_132194" x1="55.6373" y1="36.8693" x2="64.6144" y2="40.2531" gradientUnits="userSpaceOnUse">
<stop offset="0.0198017" stop-color="white"/>
<stop offset="1" stop-color="white" stop-opacity="0.55"/>
</linearGradient>
</defs>
</svg>

<svg width="220" height="160" viewBox="0 0 220 160" fill="none" xmlns="http://www.w3.org/2000/svg"><path fill="#757B94" d="M66.834 68.917H151.167V74.417H66.834z"/><rect x="55" y="38" width="108" height="31" rx="12" fill="url(#paint0_linear_2539_132194)"/><mask id="mask0_2539_132194" style="mask-type:alpha" maskUnits="userSpaceOnUse" x="55" y="38" width="108" height="31"><rect x="55" y="38" width="108" height="31" rx="12" fill="url(#paint1_linear_2539_132194)"/></mask><g mask="url(#mask0_2539_132194)"><path d="M69.252 65.05H32.445c-8.944.392-16.525-6.31-16.928-14.975-.317-6.742 3.805-12.684 9.864-15.173 2.975-1.222 5.493-3.821 6.426-6.9 2.376-7.838 9.59-13.722 18.408-14.293 9.268-.598 17.586 4.849 20.695 12.961.954 2.491 2.979 4.528 5.44 5.558 6.78 2.839 11.2 9.61 10.595 17.052-.727 8.932-8.441 15.81-17.69 15.77h-.003z" fill="url(#paint2_linear_2539_132194)"/></g><path fill-rule="evenodd" clip-rule="evenodd" d="M62.2 46.1a1.1 1.1 0 1 1-2.2 0 1.1 1.1 0 0 1 2.2 0zm4.4 0a1.1 1.1 0 1 1-2.2 0 1.1 1.1 0 0 1 2.2 0zm3.3 1.1a1.1 1.1 0 1 0 0-2.2 1.1 1.1 0 0 0 0 2.2z" fill="#757B94"/><circle cx="146.5" cy="53.5" r="4.5" fill="#06F"/><path opacity=".6" fill="#AFB4C8" d="M114.5 52.5H136.5V54.5H114.5z"/><path d="M117 69a6 6 0 0 0-6-6H71a6 6 0 0 0-6 6" stroke="#fff"/><path fill="#757B94" d="M67 103H151V109H67z"/><rect x="55" y="74" width="108" height="31" rx="12" fill="url(#paint3_linear_2539_132194)"/><path fill-rule="evenodd" clip-rule="evenodd" d="M63.2 81.1a1.1 1.1 0 1 1-2.2 0 1.1 1.1 0 0 1 2.2 0zm4.4 0a1.1 1.1 0 1 1-2.2 0 1.1 1.1 0 0 1 2.2 0zm3.3 1.1a1.1 1.1 0 1 0 0-2.2 1.1 1.1 0 0 0 0 2.2z" fill="#757B94"/><circle cx="146.5" cy="89.5" r="4.5" fill="#06F"/><path opacity=".6" fill="#AFB4C8" d="M114 88.5H136V90.5H114z"/><path d="M117 105a6 6 0 0 0-6-6H71a6 6 0 0 0-6 6" stroke="#fff"/><path fill="#757B94" d="M67 138H151V144H67z"/><rect x="55" y="109" width="108" height="31" rx="12" fill="url(#paint4_linear_2539_132194)"/><path fill-rule="evenodd" clip-rule="evenodd" d="M63.2 116.1a1.1 1.1 0 1 1-2.2 0 1.1 1.1 0 0 1 2.2 0zm4.4 0a1.1 1.1 0 1 1-2.2 0 1.1 1.1 0 0 1 2.2 0zm3.3 1.1a1.1 1.1 0 1 0 0-2.2 1.1 1.1 0 0 0 0 2.2z" fill="#757B94"/><circle cx="146.5" cy="124.5" r="4.5" fill="#06F"/><path opacity=".6" fill="#AFB4C8" d="M114 123.5H136V125.5H114z"/><path d="M117 140a6 6 0 0 0-6-6H71a6 6 0 0 0-6 6" stroke="#fff"/><path d="M68.639 59.64H43.55c-6.096.266-11.264-4.302-11.538-10.208-.278-5.905 4.44-10.91 10.536-11.178-.016-7.175 5.723-13.132 13.114-13.61 7.392-.477 13.897 4.687 14.865 11.802 6.23.93 10.667 6.357 10.171 12.444-.495 6.088-5.753 10.776-12.058 10.75h-.001z" fill="#06F"/><path fill-rule="evenodd" clip-rule="evenodd" d="M55.1 33.5a1.1 1.1 0 0 0-1.098 1.161l.48 8.66c.004.053.01.105.02.156l.908 4.539a1.1 1.1 0 0 0 1.079.884h.396a1.1 1.1 0 0 0 1.08-.884l.907-4.54c.01-.05.017-.102.02-.154l.48-8.661a1.1 1.1 0 0 0-1.098-1.161H55.1zm.487 16.5a1.1 1.1 0 0 0-1.1 1.1v2.2a1.1 1.1 0 0 0 1.1 1.1h2.2a1.1 1.1 0 0 0 1.1-1.1v-2.2a1.1 1.1 0 0 0-1.1-1.1h-2.2z" fill="url(#paint5_linear_2539_132194)"/><path fill-rule="evenodd" clip-rule="evenodd" d="M178.373 115.793c1.53-.426 3.138-.137 4.836.843 1.468.848 2.437 1.925 2.88 3.277.456 1.328.282 2.689-.509 4.059-.646 1.119-1.485 1.883-2.48 2.283-.352.132-1.337.354-2.955.668a4.378 4.378 0 0 0-1.649.631c-.516.311-.921.747-1.237 1.295l-.225.388-2.454-1.417.224-.388c.488-.845 1.047-1.496 1.711-1.904.667-.467 2.08-.9 4.227-1.335l.64-.209c.717-.286 1.262-.702 1.605-1.296.462-.799.588-1.548.416-2.256-.195-.722-.729-1.334-1.555-1.811-1.032-.596-1.974-.713-2.815-.316-.729.31-1.384.967-1.964 1.971l-2.409-1.39c.963-1.667 2.196-2.69 3.713-3.093zm-3.95 13.669a1.1 1.1 0 0 0-1.503.403l-.6 1.039a1.1 1.1 0 0 0 .403 1.502l1.039.6a1.1 1.1 0 0 0 1.503-.402l.6-1.039a1.1 1.1 0 0 0-.403-1.503l-1.039-.6zM172.31 89.062c1.368-.807 2.996-.944 4.889-.437 1.638.439 2.852 1.228 3.63 2.42.785 1.165.969 2.524.559 4.052-.334 1.248-.946 2.203-1.804 2.847-.306.218-1.2.688-2.682 1.41a4.392 4.392 0 0 0-1.43 1.037c-.417.434-.696.96-.859 1.571l-.116.433-2.738-.734.116-.433c.252-.942.624-1.716 1.16-2.282.524-.624 1.776-1.408 3.737-2.383l.565-.368c.618-.462 1.037-1.005 1.215-1.667.238-.891.167-1.647-.183-2.287-.375-.646-1.049-1.1-1.97-1.347-1.152-.308-2.091-.178-2.801.424-.624.487-1.087 1.292-1.387 2.412l-2.687-.72c.498-1.859 1.425-3.166 2.786-3.948zm-.278 14.226a1.1 1.1 0 0 0-1.347.777l-.31 1.16a1.1 1.1 0 0 0 .778 1.347l1.159.31a1.1 1.1 0 0 0 1.347-.778l.31-1.159a1.1 1.1 0 0 0-.777-1.347l-1.16-.31z" fill="#D3D9E6"/><defs><linearGradient id="paint0_linear_2539_132194" x1="55" y1="38" x2="163" y2="38" gradientUnits="userSpaceOnUse"><stop stop-color="#CFD4E6"/><stop offset="1" stop-color="#DBE0F0"/></linearGradient><linearGradient id="paint1_linear_2539_132194" x1="55" y1="38" x2="163" y2="38" gradientUnits="userSpaceOnUse"><stop stop-color="#B1B5C4"/><stop offset="1" stop-color="#E4E9F3"/></linearGradient><linearGradient id="paint2_linear_2539_132194" x1="55" y1="63.5" x2="87" y2="47.5" gradientUnits="userSpaceOnUse"><stop stop-color="#BCC2D6"/><stop offset="1" stop-color="#CCD2E4"/></linearGradient><linearGradient id="paint3_linear_2539_132194" x1="55" y1="74" x2="163" y2="74" gradientUnits="userSpaceOnUse"><stop stop-color="#CFD4E6"/><stop offset="1" stop-color="#DBE0F0"/></linearGradient><linearGradient id="paint4_linear_2539_132194" x1="55" y1="109" x2="163" y2="109" gradientUnits="userSpaceOnUse"><stop stop-color="#CFD4E6"/><stop offset="1" stop-color="#DBE0F0"/></linearGradient><linearGradient id="paint5_linear_2539_132194" x1="55.637" y1="36.869" x2="64.614" y2="40.253" gradientUnits="userSpaceOnUse"><stop offset=".02" stop-color="#fff"/><stop offset="1" stop-color="#fff" stop-opacity=".55"/></linearGradient></defs></svg>
